packages/core/src/svgs/tokens/branded/TOR.svg

<svg width="24" height="24" viewBox="0 0 24 24" fill="none" xmlns="http://www.w3.org/2000/svg">
<path fill-rule="evenodd" clip-rule="evenodd" d="M6.00206 5.01783C6.35239 4.8818 6.64194 4.62401 6.81757 4.29175C6.99318 3.95948 7.04311 3.57503 6.9582 3.20893C6.87327 2.84283 6.65918 2.51962 6.35522 2.29861C6.05125 2.07761 5.67779 1.97361 5.30334 2.00571C4.92889 2.03779 4.57857 2.20383 4.31665 2.47335C4.05472 2.74286 3.89877 3.09779 3.87738 3.473C3.856 3.84821 3.97062 4.21855 4.20023 4.51609C4.42984 4.81362 4.75903 5.01837 5.12742 5.09281V8.15407L11.2686 4.05572L10.3253 11.0904L2.62842 15.4012L10.038 18.1501L8.35736 19.2746C8.07457 19.0214 7.70926 18.8798 7.32969 18.8763C6.95011 18.8728 6.58227 19.0078 6.29492 19.2558C6.00757 19.5037 5.82038 19.8481 5.76834 20.224C5.71629 20.6 5.80295 20.982 6.01214 21.2988C6.22131 21.6156 6.53867 21.8453 6.9049 21.945C7.27115 22.0449 7.66118 22.0078 8.00212 21.8409C8.34305 21.674 8.61159 21.3887 8.75736 21.0383C8.90328 20.6879 8.91655 20.2963 8.79468 19.9368L11.6498 17.8439L4.43394 15.22L10.6314 11.7152L18.041 16.6132L16.8914 9.16614L18.3409 9.90332C18.211 10.2621 18.217 10.6558 18.3576 11.0103C18.4982 11.365 18.7636 11.6558 19.1039 11.8281C19.4442 12.0004 19.8358 12.0423 20.2047 11.9458C20.5738 11.8493 20.8947 11.621 21.1071 11.3041C21.3193 10.9873 21.4084 10.6036 21.3574 10.2256C21.3062 9.84763 21.1186 9.50142 20.8298 9.25229C20.541 9.00302 20.1711 8.86818 19.7896 8.87299C19.4082 8.87794 19.0418 9.02211 18.7594 9.27868L15.8668 7.80421L16.9976 15.0951L11.0813 11.0904L12.2183 2.40639L5.99581 6.77962V5.01783H6.00206ZM6.17699 3.56217C6.17699 3.75769 6.09932 3.9452 5.96107 4.08345C5.82282 4.2217 5.63531 4.29937 5.43978 4.29937C5.24427 4.29937 5.05676 4.2217 4.91851 4.08345C4.78025 3.9452 4.70258 3.75769 4.70258 3.56217C4.70258 3.36665 4.78025 3.17914 4.91851 3.04088C5.05676 2.90263 5.24427 2.82496 5.43978 2.82496C5.63531 2.82496 5.82282 2.90263 5.96107 3.04088C6.09932 3.17914 6.17699 3.36665 6.17699 3.56217ZM19.809 11.1716C20.0044 11.1716 20.1921 11.0939 20.3302 10.9557C20.4684 10.8175 20.5461 10.6299 20.5461 10.4344C20.5461 10.2389 20.4684 10.0514 20.3302 9.91309C20.1921 9.77489 20.0044 9.69719 19.809 9.69719C19.6135 9.69719 19.426 9.77489 19.2877 9.91309C19.1495 10.0514 19.0718 10.2389 19.0718 10.4344C19.0718 10.6299 19.1495 10.8175 19.2877 10.9557C19.426 11.0939 19.6135 11.1716 19.809 11.1716ZM8.05123 20.4304C8.05123 20.6259 7.97356 20.8134 7.83531 20.9516C7.69706 21.0899 7.50954 21.1676 7.31403 21.1676C7.1185 21.1676 6.931 21.0899 6.79274 20.9516C6.65449 20.8134 6.57682 20.6259 6.57682 20.4304C6.57682 20.2348 6.65449 20.0473 6.79274 19.9091C6.931 19.7708 7.1185 19.6931 7.31403 19.6931C7.50954 19.6931 7.69706 19.7708 7.83531 19.9091C7.97356 20.0473 8.05123 20.2348 8.05123 20.4304Z" fill="#BE7C40"/>
</svg>

<svg xmlns="http://www.w3.org/2000/svg" width="24" height="24" fill="none" viewBox="0 0 24 24">
    <path fill="#BE7C40" fill-rule="evenodd" d="M6.002 5.018a1.562 1.562 0 1 0-.875.075v3.061l6.142-4.098-.944 7.034-7.697 4.311 7.41 2.75-1.68 1.124a1.562 1.562 0 1 0 .437.662l2.855-2.093-7.216-2.624 6.197-3.505 7.41 4.898-1.15-7.447 1.45.737a1.56 1.56 0 1 0 .418-.624l-2.892-1.475 1.13 7.291-5.916-4.005 1.137-8.684L5.996 6.78V5.018zm.175-1.456a.737.737 0 1 1-1.474 0 .737.737 0 0 1 1.474 0m13.632 7.61a.737.737 0 1 0 0-1.475.737.737 0 0 0 0 1.475M8.051 20.43a.737.737 0 1 1-1.474 0 .737.737 0 0 1 1.474 0" clip-rule="evenodd"/>
</svg>
